X: 1
T: You're Breaking My Heart
O: Italy
Z: 2013 John Chambers <jc:trillian.mit.edu>
M: 6/8
L: 1/8
K: D
A |\
"D"def "Bm"dcB | "Em"eE3- E2F | "G"GBd "A7"cBF | "D"A3- A2A |\
"B7"FGA F^DB, | "Em"FE2- E2D | "C#7"C^EA ^GFC | "F#m"c3- "A7"c2A |
"D"def "Bm"dcB | "Em"eE3- E2F | "G"GBd "A7"cBF | "D"A3- A2A |\
"B7"FGA F^DB, | "Em"FE2- E2D | "C#7"C^EA ^GFC | "F#m"c3 "A7"AFA |
"D"B3 AFA | "C#7"B3 B^GB | "F#m"c2c "Em7"Bcd | "A7"e3 "F#7"gfc |\
c2d "Bm"edF | "Gm"A3 G3 | "D"FAd "A7"Bcf | "D"d6 |]
